Obsidian/status/22s/deluge-panel.svg

<svg height="22" width="22" xmlns="http://www.w3.org/2000/svg"><g fill="#d3dae3"><path d="m10.902344 3c-1.0009294 1.4011732-3.3455017 4.2309686-4.7597659 7.166016 1.217699-1.54877 2.506948-2.1649565 3.6660157-2.166016 3.1638762-.002868 5.6422882 4.453385 4.5000002 4.886719-.909437-1.942636-2.188936-2.856319-3.310547-2.886719-1.4727261-.0399104-2.9423662 1.362325-2.998047 3.162109-.1288336 4.164317 6.020485 3.668035 6.792969 4.939453 0 0 .001953.001954.001953.001954.670224-.374574 1.232307-.863781 1.613281-1.47461 2.572395-4.123957-3.985241-11.128426-5.505859-13.628906zm-4.7636721 7.173828c-.151962.315759-.2924007.632712-.4199219.949219.1267067-.31625.2680651-.63366.4199219-.949219zm-.4199219.949219c-.1269305.315041-.2368711.628883-.3339844.941406.0961021-.31228.2078541-.626595.3339844-.941406zm-.3378906.951172c-.0976066.315183-.1767814.628235-.2382813.9375.0608186-.309608.1415147-.621979.2382813-.9375zm-.2382813.9375c-.0582996.293171-.0944017.582255-.1152343.867187.0207709-.284939.0576526-.574057.1152343-.867187zm-.1210937.925781c-.0071414.112038-.0070714.221611-.0078125.332031-.0004706-.109979.0023838-.220392.0078125-.332031zm.0097656.740234c.0114397.161027.0274054.320085.0546875.476563-.0268227-.155596-.0424247-.315829-.0546875-.476563zm.1386719.833985c.0391988.148713.07105.299928.1269531.443359-.0546288-.143026-.0886953-.293552-.1269531-.443359zm.1464843.488281c.0871777.215704.1863438.4269.3144532.628906.0136439.021512.0327876.039328.046875.060547-.014672-.020398-.0314614-.039326-.0449219-.060547-.1265037-.199474-.2300767-.41101-.3164063-.628906zm.7050782 1.132812c.0502943.055953.1065362.106718.1601562.160157-.0534213-.053268-.1100372-.104387-.1601562-.160157zm.4882812.458985c.0581522.047337.1168499.093726.1777344.138672-.0608488-.044932-.1196164-.091342-.1777344-.138672zm.5839844.410156c.0590973.035558.1168111.071817.1777344.105469-.0609003-.033632-.1190166-.069664-.1777344-.105469zm7.123047.384766c-.078589.03354-.161548.061017-.242188.091797.080801-.030811.163447-.058213.242188-.091797zm-.679688.246093c-.093862.028793-.189374.052657-.285156.078126.095679-.025423.19142-.049254.285156-.078126zm-4.9609371.015626c.0635386.019014.128957.033321.1933593.050781-.0641926-.0174-.1300253-.031841-.1933593-.050781zm4.2656251.160156c-.106615.022386-.214065.044204-.322266.0625.108672-.018348.215197-.04004.322266-.0625zm-3.5566408.013672c.0869011.01751.1738193.033989.2617188.048828-.0878297-.01481-.1748849-.031346-.2617188-.048828zm2.9960938.082031c-.366494.05143-.737255.084286-1.111328.089844.374394-.005431.744557-.038436 1.111328-.089844zm-2.3886719.013672c.3869279.049461.7786499.081233 1.1718749.080078-.392831.00123-.785328-.030778-1.1718749-.080078z"/><path d="m9.8085939 8c-1.1596314.00106-2.4497475.6175382-3.6679688 2.167969-.611563 1.269658-1.0406882 2.558237-1.1191406 3.759765-.006.119592-.00857.237769-.00781.355469-.0005645.133379.00829.263807.017578.394531.012362.162034.027453.323692.054687.480469.020521.117107.052145.231429.082031.345703.039084.152395.073324.30565.1289062.451172.00457.01172.00899.02348.013672.03516.087102.221645.193721.43598.3222656.638672.015204.02397.035028.04475.050781.06836.10182.152492.2144256.298192.3378906.435546.050119.05577.1067349.106889.1601562.160157.1042285.103876.2121867.204452.328125.298828.058118.04733.1168856.09374.1777344.138672.1236595.09129.2526801.178348.3867188.259765.065356.03969.1296536.07985.1972656.117188.1913301.105684.3884341.204138.5957031.291016.00464.0019.00902.0039.013672.0059.0005505.000229.0014-.000229.00195 0 .2230193.09281.4557997.173048.6933594.244141.063334.01894.1291667.03338.1933593.05078.1690399.04583.3396115.08793.5136719.123047.088708.01789.1778291.03372.2675781.04883.1128502.019.2276209.03228.3417969.04687.3865464.0493.7790444.08131 1.1718754.08008.03334-.000098.06628-.0034.09961-.0039.376068-.0053.748773-.03814 1.117187-.08984.07949-.01114.159493-.0199.238281-.0332.109465-.01851.218335-.03982.326172-.0625.136966-.0288.272509-.06212.40625-.09766.09778-.026.195266-.05048.291016-.08008.147322-.04551.28991-.0983.43164-.152343.08064-.03078.163599-.05826.242188-.0918.20011-.08535.393329-.179925.578125-.283203-.000136-.0011-.0017-.000814-.002-.002-.772484-1.271419-6.9217545-.775138-6.7929209-4.939455.0556808-1.799784 1.5253209-3.2020194 2.9980469-3.162109 1.121611.0304 2.40111.944083 3.310547 2.886719 1.142288-.433334-1.336124-4.889587-4.5000001-4.886719z" fill-rule="evenodd" opacity=".3"/></g></svg>

<svg xmlns="http://www.w3.org/2000/svg" width="22" height="22" version="1.1">
 <defs>
  <style id="current-color-scheme" type="text/css">
   .ColorScheme-Text { color:#d3dae3; } .ColorScheme-Highlight { color:#5294e2; }
  </style>
 </defs>
 <path style="fill:currentColor" class="ColorScheme-Text" d="M 10.902344 3 C 9.9014146 4.4011732 7.5568423 7.2309686 6.1425781 10.166016 C 7.3602771 8.617246 8.6495261 8.0010595 9.8085938 8 C 12.97247 7.997132 15.450882 12.453385 14.308594 12.886719 C 13.399157 10.944083 12.119658 10.0304 10.998047 10 C 9.5253209 9.9600896 8.0556808 11.362325 8 13.162109 C 7.8711664 17.326426 14.020485 16.830144 14.792969 18.101562 C 14.792969 18.101562 14.794922 18.103516 14.794922 18.103516 C 15.465146 17.728942 16.027229 17.239735 16.408203 16.628906 C 18.980598 12.504949 12.422962 5.50048 10.902344 3 z M 6.1386719 10.173828 C 5.9867099 10.489587 5.8462712 10.80654 5.71875 11.123047 C 5.8454567 10.806797 5.9868151 10.489387 6.1386719 10.173828 z M 5.71875 11.123047 C 5.5918195 11.438088 5.4818789 11.75193 5.3847656 12.064453 C 5.4808677 11.752173 5.5926197 11.437858 5.71875 11.123047 z M 5.3808594 12.074219 C 5.2832528 12.389402 5.204078 12.702454 5.1425781 13.011719 C 5.2033967 12.702111 5.2840928 12.38974 5.3808594 12.074219 z M 5.1425781 13.011719 C 5.0842785 13.30489 5.0481764 13.593974 5.0273438 13.878906 C 5.0481147 13.593967 5.0849964 13.304849 5.1425781 13.011719 z M 5.0214844 13.9375 C 5.014343 14.049538 5.014413 14.159111 5.0136719 14.269531 C 5.0132013 14.159552 5.0160557 14.049139 5.0214844 13.9375 z M 5.03125 14.677734 C 5.0426897 14.838761 5.0586554 14.997819 5.0859375 15.154297 C 5.0591148 14.998701 5.0435128 14.838468 5.03125 14.677734 z M 5.1699219 15.511719 C 5.2091207 15.660432 5.2409719 15.811647 5.296875 15.955078 C 5.2422462 15.812052 5.2081797 15.661526 5.1699219 15.511719 z M 5.3164062 16 C 5.4035839 16.215704 5.50275 16.4269 5.6308594 16.628906 C 5.6445033 16.650418 5.663647 16.668234 5.6777344 16.689453 C 5.6630624 16.669055 5.646273 16.650127 5.6328125 16.628906 C 5.5063088 16.429432 5.4027358 16.217896 5.3164062 16 z M 6.0214844 17.132812 C 6.0717787 17.188765 6.1280206 17.23953 6.1816406 17.292969 C 6.1282193 17.239701 6.0716034 17.188582 6.0214844 17.132812 z M 6.5097656 17.591797 C 6.5679178 17.639134 6.6266155 17.685523 6.6875 17.730469 C 6.6266512 17.685537 6.5678836 17.639127 6.5097656 17.591797 z M 7.09375 18.001953 C 7.1528473 18.037511 7.2105611 18.07377 7.2714844 18.107422 C 7.2105841 18.07379 7.1524678 18.037758 7.09375 18.001953 z M 14.216797 18.386719 C 14.138208 18.420259 14.055249 18.447736 13.974609 18.478516 C 14.05541 18.447705 14.138056 18.420303 14.216797 18.386719 z M 13.537109 18.632812 C 13.443247 18.661605 13.347735 18.685469 13.251953 18.710938 C 13.347632 18.685515 13.443373 18.661684 13.537109 18.632812 z M 8.5761719 18.648438 C 8.6397105 18.667452 8.7051289 18.681759 8.7695312 18.699219 C 8.7053386 18.681819 8.6395059 18.667378 8.5761719 18.648438 z M 12.841797 18.808594 C 12.735182 18.83098 12.627732 18.852798 12.519531 18.871094 C 12.628203 18.852746 12.734728 18.831054 12.841797 18.808594 z M 9.2851562 18.822266 C 9.3720573 18.839776 9.4589755 18.856255 9.546875 18.871094 C 9.4590453 18.856284 9.3719901 18.839748 9.2851562 18.822266 z M 12.28125 18.904297 C 11.914756 18.955727 11.543995 18.988583 11.169922 18.994141 C 11.544316 18.98871 11.914479 18.955705 12.28125 18.904297 z M 9.8925781 18.917969 C 10.279506 18.96743 10.671228 18.999202 11.064453 18.998047 C 10.671622 18.999277 10.279125 18.967269 9.8925781 18.917969 z"/>
 <path style="opacity:0.3;fill:currentColor;fill-rule:evenodd" class="ColorScheme-Text" d="m 9.8085939,8 c -1.1596314,0.00106 -2.4497475,0.6175382 -3.6679688,2.167969 -0.611563,1.269658 -1.0406882,2.558237 -1.1191406,3.759765 -0.006,0.119592 -0.00857,0.237769 -0.00781,0.355469 -5.645e-4,0.133379 0.00829,0.263807 0.017578,0.394531 0.012362,0.162034 0.027453,0.323692 0.054687,0.480469 0.020521,0.117107 0.052145,0.231429 0.082031,0.345703 0.039084,0.152395 0.073324,0.30565 0.1289062,0.451172 0.00457,0.01172 0.00899,0.02348 0.013672,0.03516 0.087102,0.221645 0.193721,0.43598 0.3222656,0.638672 0.015204,0.02397 0.035028,0.04475 0.050781,0.06836 0.10182,0.152492 0.2144256,0.298192 0.3378906,0.435546 0.050119,0.05577 0.1067349,0.106889 0.1601562,0.160157 0.1042285,0.103876 0.2121867,0.204452 0.328125,0.298828 0.058118,0.04733 0.1168856,0.09374 0.1777344,0.138672 0.1236595,0.09129 0.2526801,0.178348 0.3867188,0.259765 0.065356,0.03969 0.1296536,0.07985 0.1972656,0.117188 0.1913301,0.105684 0.3884341,0.204138 0.5957031,0.291016 0.00464,0.0019 0.00902,0.0039 0.013672,0.0059 5.505e-4,2.29e-4 0.0014,-2.29e-4 0.00195,0 0.2230193,0.09281 0.4557997,0.173048 0.6933594,0.244141 0.063334,0.01894 0.1291667,0.03338 0.1933593,0.05078 0.1690399,0.04583 0.3396115,0.08793 0.5136719,0.123047 0.088708,0.01789 0.1778291,0.03372 0.2675781,0.04883 0.1128502,0.019 0.2276209,0.03228 0.3417969,0.04687 0.3865464,0.0493 0.7790444,0.08131 1.1718754,0.08008 0.03334,-9.8e-5 0.06628,-0.0034 0.09961,-0.0039 0.376068,-0.0053 0.748773,-0.03814 1.117187,-0.08984 0.07949,-0.01114 0.159493,-0.0199 0.238281,-0.0332 0.109465,-0.01851 0.218335,-0.03982 0.326172,-0.0625 0.136966,-0.0288 0.272509,-0.06212 0.40625,-0.09766 0.09778,-0.026 0.195266,-0.05048 0.291016,-0.08008 0.147322,-0.04551 0.28991,-0.0983 0.43164,-0.152343 0.08064,-0.03078 0.163599,-0.05826 0.242188,-0.0918 0.20011,-0.08535 0.393329,-0.179925 0.578125,-0.283203 -1.36e-4,-0.0011 -0.0017,-8.14e-4 -0.002,-0.002 C 14.020437,16.830145 7.8711665,17.326426 8.0000001,13.162109 8.0556809,11.362325 9.525321,9.9600896 10.998047,10 c 1.121611,0.0304 2.40111,0.944083 3.310547,2.886719 C 15.450882,12.453385 12.97247,7.997132 9.8085939,8 Z"/>
</svg>
